material/.icons/material/format-header-decrease.svg

<svg xmlns="http://www.w3.org/2000/svg" viewBox="0 0 24 24"><path d="M4 4h2v6h4V4h2v14h-2v-6H6v6H4V4m16.42 3.41L16.83 11l3.59 3.59L19 16l-5-5 5-5 1.42 1.41z"/></svg>

<?xml version="1.0" encoding="UTF-8"?><!DOCTYPE svg PUBLIC "-//W3C//DTD SVG 1.1//EN" "http://www.w3.org/Graphics/SVG/1.1/DTD/svg11.dtd"><svg xmlns="http://www.w3.org/2000/svg" xmlns:xlink="http://www.w3.org/1999/xlink" version="1.1" id="mdi-format-header-decrease" width="24" height="24" viewBox="0 0 24 24"><path d="M4,4H6V10H10V4H12V18H10V12H6V18H4V4M20.42,7.41L16.83,11L20.42,14.59L19,16L14,11L19,6L20.42,7.41Z" /></svg>
